dist/img/help/help-4.svg

<svg width="82" height="86" viewBox="0 0 82 86" fill="none" xmlns="http://www.w3.org/2000/svg">
<path d="M28 6H50V17.104H33.5779L39 20H74.5L75.5 56.5L79.5 62.5L79 24C79 19.4362 77.6124 17.104 73.0486 17.104H54V8.88091C54 4.31711 52.9432 3 48.3794 3H28.5C24.4296 3 24 3.5 24 7L28 12.5V6ZM2 0L0.5 3L14.4999 17.104H7.26408C2.70028 17.104 0.5 18.4362 0.5 23V71C0.5 75.5638 2.70028 76.5 7.26408 76.5H73.0486L81.2716 86V80.5L2 0ZM4.79716 73V20H16.5L43 47L69 73H4.79716Z" fill="white"/>
</svg>

<svg width="82" height="86" fill="none" xmlns="http://www.w3.org/2000/svg"><path d="M28 6h22v11.104H33.578L39 20h35.5l1 36.5 4 6L79 24c0-4.564-1.388-6.896-5.951-6.896H54V8.881C54 4.317 52.943 3 48.38 3H28.5c-4.07 0-4.5.5-4.5 4l4 5.5V6ZM2 0 .5 3l14 14.104H7.264C2.7 17.104.5 18.436.5 23v48c0 4.564 2.2 5.5 6.764 5.5H73.05l8.223 9.5v-5.5L2 0Zm2.797 73V20H16.5L43 47l26 26H4.797Z" fill="#fff"/></svg>
